X:1
T:Anglais
T:efter Alfred Petersson, Nttraby, Blekinge (SvL, Band 18, nr 290)
O:Nttraby, Blekinge
S:Svenska Ltar
N:Svenska Ltar, Band 18 nr 290
R:Anglais
C:Alfred Petersson
M:2/4
L:1/16
Q:1/4=80
Z:Konverterad till abc-format av  Olle Paulsson 05-01-03
K:Bb
F2|B2({c}B)A Bbfd|B2({c}B)A Bbfd|c2({d}c)B cecA|F2GA B2:|
|:f2|(ec)AF (=EF)GF|(BF)Bd (fb)fd|(ed)cB (cB)Ag|fecA B2:|
